Newaita-dark/apps/24/mc.svg

<?xml version="1.0" encoding="UTF-8"?>
<svg xmlns="http://www.w3.org/2000/svg" xmlns:xlink="http://www.w3.org/1999/xlink" width="24pt" height="24pt" viewBox="0 0 24 24" version="1.1">
<defs>
<linearGradient id="linear0" gradientUnits="userSpaceOnUse" x1="254" y1="233.5" x2="254" y2="254.666672" gradientTransform="matrix(0.0468795,0,0,0.0468795,-0.0000028613,10.079089)">
<stop offset="0" style="stop-color:rgb(0%,0%,0%);stop-opacity:0.27451;"/>
<stop offset="1" style="stop-color:rgb(0%,0%,0%);stop-opacity:0;"/>
</linearGradient>
<radialGradient id="radial0" gradientUnits="userSpaceOnUse" cx="450.908936" cy="189.579361" fx="450.908936" fy="189.579361" r="21.166656" gradientTransform="matrix(0.000000130628,-0.0585994,-0.105479,-0.0000000761539,39.842197,47.696499)">
<stop offset="0" style="stop-color:rgb(0%,0%,0%);stop-opacity:0.313725;"/>
<stop offset="0.222222" style="stop-color:rgb(0%,0%,0%);stop-opacity:0.27451;"/>
<stop offset="1" style="stop-color:rgb(0%,0%,0%);stop-opacity:0;"/>
</radialGradient>
<radialGradient id="radial1" gradientUnits="userSpaceOnUse" cx="450.908936" cy="189.579361" fx="450.908936" fy="189.579361" r="21.166656" gradientTransform="matrix(-0.000000130628,0.0585994,0.105479,0.0000000761539,-15.90339,-5.645609)">
<stop offset="0" style="stop-color:rgb(0%,0%,0%);stop-opacity:0.313725;"/>
<stop offset="0.222222" style="stop-color:rgb(0%,0%,0%);stop-opacity:0.27451;"/>
<stop offset="1" style="stop-color:rgb(0%,0%,0%);stop-opacity:0;"/>
</radialGradient>
<radialGradient id="radial2" gradientUnits="userSpaceOnUse" cx="450.908936" cy="189.579361" fx="450.908936" fy="189.579361" r="21.166656" gradientTransform="matrix(-0.000000130628,-0.0585994,0.105479,-0.0000000761539,-15.90339,47.696499)">
<stop offset="0" style="stop-color:rgb(0%,0%,0%);stop-opacity:0.313725;"/>
<stop offset="0.222222" style="stop-color:rgb(0%,0%,0%);stop-opacity:0.27451;"/>
<stop offset="1" style="stop-color:rgb(0%,0%,0%);stop-opacity:0;"/>
</radialGradient>
<radialGradient id="radial3" gradientUnits="userSpaceOnUse" cx="450.908936" cy="189.579361" fx="450.908936" fy="189.579361" r="21.166656" gradientTransform="matrix(0.000000130628,0.0585994,-0.105479,0.0000000761539,39.842196,-5.64561)">
<stop offset="0" style="stop-color:rgb(0%,0%,0%);stop-opacity:0.313725;"/>
<stop offset="0.222222" style="stop-color:rgb(0%,0%,0%);stop-opacity:0.27451;"/>
<stop offset="1" style="stop-color:rgb(0%,0%,0%);stop-opacity:0;"/>
</radialGradient>
<linearGradient id="linear1" gradientUnits="userSpaceOnUse" x1="254" y1="-126.333344" x2="254" y2="212.333328" gradientTransform="matrix(0.0468795,0,0,0.0468795,0,10.079087)">
<stop offset="0" style="stop-color:rgb(25.882353%,64.705882%,96.078431%);stop-opacity:1;"/>
<stop offset="1" style="stop-color:rgb(39.215686%,70.980392%,96.470588%);stop-opacity:1;"/>
</linearGradient>
<linearGradient id="linear2" gradientUnits="userSpaceOnUse" x1="254" y1="-168.666656" x2="254" y2="233.5" gradientTransform="matrix(0.0468795,0,0,0.0468795,0,10.079086)">
<stop offset="0" style="stop-color:rgb(45.882353%,45.882353%,45.882353%);stop-opacity:1;"/>
<stop offset="1" style="stop-color:rgb(38.039216%,38.039216%,38.039216%);stop-opacity:1;"/>
</linearGradient>
<linearGradient id="linear3" gradientUnits="userSpaceOnUse" x1="254" y1="-168.666672" x2="254" y2="233.5" gradientTransform="matrix(0.0468795,0,0,0.0468795,0,10.079087)">
<stop offset="0" style="stop-color:rgb(45.882353%,45.882353%,45.882353%);stop-opacity:1;"/>
<stop offset="1" style="stop-color:rgb(38.039216%,38.039216%,38.039216%);stop-opacity:1;"/>
</linearGradient>
</defs>
<g id="surface1">
<path style=" stroke:none;fill-rule:nonzero;fill:url(#linear0);" d="M 3.84375 21.027344 L 20.09375 21.027344 L 20.09375 22.019531 L 3.84375 22.019531 Z M 3.84375 21.027344 "/>
<path style=" stroke:none;fill-rule:nonzero;fill:url(#radial0);" d="M 20.09375 21.027344 L 22.078125 21.027344 L 22.078125 20.03125 L 20.09375 20.03125 Z M 20.09375 21.027344 "/>
<path style=" stroke:none;fill-rule:nonzero;fill:url(#radial1);" d="M 3.84375 21.027344 L 1.859375 21.027344 L 1.859375 22.019531 L 3.84375 22.019531 Z M 3.84375 21.027344 "/>
<path style=" stroke:none;fill-rule:nonzero;fill:url(#radial2);" d="M 3.84375 21.027344 L 1.859375 21.027344 L 1.859375 20.03125 L 3.84375 20.03125 Z M 3.84375 21.027344 "/>
<path style=" stroke:none;fill-rule:nonzero;fill:url(#radial3);" d="M 20.09375 21.027344 L 22.078125 21.027344 L 22.078125 22.019531 L 20.09375 22.019531 Z M 20.09375 21.027344 "/>
<path style=" stroke:none;fill-rule:nonzero;fill:url(#linear1);" d="M 2.480469 4.15625 L 21.335938 4.15625 L 21.335938 20.03125 L 2.480469 20.03125 Z M 2.480469 4.15625 "/>
<path style=" stroke:none;fill-rule:nonzero;fill:rgb(100%,100%,100%);fill-opacity:0.235294;" d="M 16.125 16.558594 C 15.574219 16.558594 15.132812 17.003906 15.132812 17.550781 C 15.132812 18.101562 15.574219 18.542969 16.125 18.542969 C 16.492188 18.542969 16.8125 18.34375 16.984375 18.046875 L 18.878906 18.046875 L 20.714844 20.113281 L 21.457031 19.457031 L 19.324219 17.058594 L 16.984375 17.058594 C 16.8125 16.757812 16.492188 16.558594 16.125 16.558594 Z M 16.125 16.558594 "/>
<path style=" stroke:none;fill-rule:nonzero;fill:rgb(100%,100%,100%);fill-opacity:0.235294;" d="M 11.269531 4.347656 L 8.691406 7.628906 L 6.070312 7.628906 C 5.898438 7.332031 5.578125 7.132812 5.210938 7.132812 C 4.660156 7.132812 4.21875 7.574219 4.21875 8.125 C 4.21875 8.675781 4.660156 9.117188 5.210938 9.117188 C 5.578125 9.117188 5.898438 8.917969 6.070312 8.621094 L 9.171875 8.621094 L 12.050781 4.960938 Z M 11.269531 4.347656 "/>
<path style=" stroke:none;fill-rule:nonzero;fill:url(#linear2);" d="M 2.730469 2.171875 C 2.316406 2.171875 1.984375 2.503906 1.984375 2.917969 L 1.984375 20.28125 C 1.984375 20.695312 2.316406 21.027344 2.730469 21.027344 L 21.085938 21.027344 C 21.5 21.027344 21.832031 20.695312 21.832031 20.28125 L 21.832031 2.917969 C 21.832031 2.503906 21.5 2.171875 21.085938 2.171875 Z M 2.976562 5.148438 L 20.839844 5.148438 L 20.839844 19.535156 C 20.839844 19.8125 20.617188 20.03125 20.339844 20.03125 L 3.472656 20.03125 C 3.199219 20.03125 2.976562 19.8125 2.976562 19.535156 Z M 2.976562 5.148438 "/>
<path style=" stroke:none;fill-rule:nonzero;fill:rgb(100%,100%,100%);fill-opacity:0.392157;" d="M 2.730469 2.171875 C 2.316406 2.171875 1.984375 2.503906 1.984375 2.917969 L 1.984375 3.164062 C 1.984375 2.753906 2.316406 2.421875 2.730469 2.421875 L 21.085938 2.421875 C 21.5 2.421875 21.832031 2.753906 21.832031 3.164062 L 21.832031 2.917969 C 21.832031 2.503906 21.5 2.171875 21.085938 2.171875 Z M 2.976562 19.535156 L 2.976562 19.785156 C 2.976562 20.058594 3.199219 20.28125 3.472656 20.28125 L 20.339844 20.28125 C 20.617188 20.28125 20.839844 20.058594 20.839844 19.785156 L 20.839844 19.535156 C 20.839844 19.8125 20.617188 20.03125 20.339844 20.03125 L 3.472656 20.03125 C 3.199219 20.03125 2.976562 19.8125 2.976562 19.535156 Z M 2.976562 19.535156 "/>
<path style=" stroke:none;fill-rule:nonzero;fill:rgb(0%,0%,0%);fill-opacity:0.235294;" d="M 2.976562 4.890625 L 2.976562 5.148438 L 20.839844 5.148438 L 20.839844 4.890625 Z M 1.984375 20.019531 L 1.984375 20.28125 C 1.984375 20.695312 2.316406 21.027344 2.730469 21.027344 L 21.085938 21.027344 C 21.5 21.027344 21.832031 20.695312 21.832031 20.28125 L 21.832031 20.019531 C 21.832031 20.433594 21.5 20.765625 21.085938 20.765625 L 2.730469 20.765625 C 2.316406 20.765625 1.984375 20.433594 1.984375 20.019531 Z M 1.984375 20.019531 "/>
<path style=" stroke:none;fill-rule:nonzero;fill:url(#linear3);" d="M 11.410156 4.652344 L 12.402344 4.652344 L 12.402344 20.53125 L 11.410156 20.53125 Z M 11.410156 4.652344 "/>
<path style=" stroke:none;fill-rule:nonzero;fill:rgb(100%,100%,100%);fill-opacity:0.235294;" d="M 8.433594 11.101562 C 7.882812 11.101562 7.441406 11.546875 7.441406 12.09375 C 7.441406 12.296875 7.503906 12.488281 7.605469 12.644531 L 6.640625 14.578125 L 2.976562 14.578125 L 2.976562 15.566406 L 4.542969 15.566406 L 5.039062 18.542969 L 7.574219 18.542969 C 7.746094 18.84375 8.066406 19.042969 8.433594 19.042969 C 8.984375 19.042969 9.425781 18.597656 9.425781 18.050781 C 9.425781 17.5 8.984375 17.058594 8.433594 17.058594 C 8.066406 17.058594 7.746094 17.257812 7.574219 17.554688 L 5.878906 17.554688 L 5.546875 15.566406 L 7.253906 15.566406 L 8.492188 13.085938 C 9.015625 13.054688 9.425781 12.625 9.425781 12.09375 C 9.425781 11.546875 8.984375 11.101562 8.433594 11.101562 Z M 8.433594 11.101562 "/>
<path style=" stroke:none;fill-rule:nonzero;fill:rgb(100%,100%,100%);fill-opacity:0.235294;" d="M 14.882812 7.132812 C 14.335938 7.132812 13.890625 7.574219 13.890625 8.125 C 13.890625 8.554688 14.160156 8.914062 14.535156 9.054688 L 14.960938 11.597656 L 18.546875 11.597656 L 17.554688 13.582031 L 15 13.582031 C 14.828125 13.285156 14.507812 13.085938 14.140625 13.085938 C 13.589844 13.085938 13.148438 13.53125 13.148438 14.078125 C 13.148438 14.628906 13.589844 15.070312 14.140625 15.070312 C 14.507812 15.070312 14.828125 14.871094 15 14.574219 L 18.167969 14.574219 L 19.65625 11.597656 L 20.839844 11.597656 L 20.839844 10.605469 L 15.800781 10.605469 L 15.515625 8.894531 C 15.734375 8.710938 15.875 8.4375 15.875 8.125 C 15.875 7.574219 15.433594 7.132812 14.882812 7.132812 Z M 14.882812 7.132812 "/>
</g>
</svg>

<svg xmlns="http://www.w3.org/2000/svg" width="32" height="32" viewBox="0 0 24 24"><defs><linearGradient id="a" gradientUnits="userSpaceOnUse" x1="254" y1="233.5" x2="254" y2="254.667" gradientTransform="matrix(.04688 0 0 .04688 0 10.08)"><stop offset="0" stop-opacity=".275"/><stop offset="1" stop-opacity="0"/></linearGradient><radialGradient id="b" gradientUnits="userSpaceOnUse" cx="450.909" cy="189.579" fx="450.909" fy="189.579" r="21.167" gradientTransform="matrix(0 -.0586 -.10548 0 39.842 47.696)"><stop offset="0" stop-opacity=".314"/><stop offset=".222" stop-opacity=".275"/><stop offset="1" stop-opacity="0"/></radialGradient><radialGradient id="c" gradientUnits="userSpaceOnUse" cx="450.909" cy="189.579" fx="450.909" fy="189.579" r="21.167" gradientTransform="matrix(0 .0586 .10548 0 -15.903 -5.646)"><stop offset="0" stop-opacity=".314"/><stop offset=".222" stop-opacity=".275"/><stop offset="1" stop-opacity="0"/></radialGradient><radialGradient id="d" gradientUnits="userSpaceOnUse" cx="450.909" cy="189.579" fx="450.909" fy="189.579" r="21.167" gradientTransform="matrix(0 -.0586 .10548 0 -15.903 47.696)"><stop offset="0" stop-opacity=".314"/><stop offset=".222" stop-opacity=".275"/><stop offset="1" stop-opacity="0"/></radialGradient><radialGradient id="e" gradientUnits="userSpaceOnUse" cx="450.909" cy="189.579" fx="450.909" fy="189.579" r="21.167" gradientTransform="matrix(0 .0586 -.10548 0 39.842 -5.646)"><stop offset="0" stop-opacity=".314"/><stop offset=".222" stop-opacity=".275"/><stop offset="1" stop-opacity="0"/></radialGradient><linearGradient id="f" gradientUnits="userSpaceOnUse" x1="254" y1="-126.333" x2="254" y2="212.333" gradientTransform="matrix(.04688 0 0 .04688 0 10.08)"><stop offset="0" stop-color="#42a5f5"/><stop offset="1" stop-color="#64b5f6"/></linearGradient><linearGradient id="g" gradientUnits="userSpaceOnUse" x1="254" y1="-168.667" x2="254" y2="233.5" gradientTransform="matrix(.04688 0 0 .04688 0 10.08)"><stop offset="0" stop-color="#757575"/><stop offset="1" stop-color="#616161"/></linearGradient><linearGradient id="h" gradientUnits="userSpaceOnUse" x1="254" y1="-168.667" x2="254" y2="233.5" gradientTransform="matrix(.04688 0 0 .04688 0 10.08)"><stop offset="0" stop-color="#757575"/><stop offset="1" stop-color="#616161"/></linearGradient></defs><path d="M3.844 21.027h16.25v.993H3.844zm0 0" fill="url(#a)"/><path d="M20.094 21.027h1.984v-.996h-1.984zm0 0" fill="url(#b)"/><path d="M3.844 21.027H1.859v.993h1.985zm0 0" fill="url(#c)"/><path d="M3.844 21.027H1.859v-.996h1.985zm0 0" fill="url(#d)"/><path d="M20.094 21.027h1.984v.993h-1.984zm0 0" fill="url(#e)"/><path d="M2.48 4.156h18.856v15.875H2.48zm0 0" fill="url(#f)"/><path d="M16.125 16.559a.991.991 0 0 0-.992.992.991.991 0 1 0 1.852.496h1.894l1.836 2.066.742-.656-2.133-2.398h-2.34a.987.987 0 0 0-.859-.5zm0 0M11.27 4.348L8.69 7.628h-2.62a.991.991 0 0 0-1.852.497.991.991 0 1 0 1.852.496h3.1l2.88-3.66zm0 0" fill="#fff" fill-opacity=".235"/><path d="M2.73 2.172a.744.744 0 0 0-.746.746v17.363c0 .414.332.746.746.746h18.356a.744.744 0 0 0 .746-.746V2.918a.744.744 0 0 0-.746-.746zm.247 2.976H20.84v14.387a.495.495 0 0 1-.5.496H3.473a.494.494 0 0 1-.496-.496zm0 0" fill="url(#g)"/><path d="M2.73 2.172a.744.744 0 0 0-.746.746v.246c0-.41.332-.742.746-.742h18.356c.414 0 .746.332.746.742v-.246a.744.744 0 0 0-.746-.746zm.247 17.363v.25c0 .274.222.496.496.496H20.34c.277 0 .5-.222.5-.496v-.25a.495.495 0 0 1-.5.496H3.473a.494.494 0 0 1-.496-.496zm0 0" fill="#fff" fill-opacity=".392"/><path d="M2.977 4.89v.258H20.84v-.257zm-.993 15.13v.261c0 .414.332.746.746.746h18.356a.744.744 0 0 0 .746-.746v-.261a.744.744 0 0 1-.746.746H2.73a.744.744 0 0 1-.746-.746zm0 0" fill-opacity=".235"/><path d="M11.41 4.652h.992v15.88h-.992zm0 0" fill="url(#h)"/><path d="M8.434 11.102a.991.991 0 0 0-.993.992c0 .203.063.394.164.55l-.964 1.934H2.977v.988h1.566l.496 2.977h2.535a.991.991 0 0 0 1.852-.492.991.991 0 1 0-1.852-.496H5.88l-.332-1.989h1.707l1.238-2.48a.99.99 0 0 0 .934-.992.991.991 0 0 0-.992-.992zm0 0M14.883 7.133a.991.991 0 0 0-.348 1.922l.426 2.543h3.586l-.992 1.984H15a.991.991 0 0 0-1.852.496c0 .55.442.992.993.992.367 0 .687-.199.859-.496h3.168l1.488-2.976h1.184v-.993H15.8l-.284-1.71a.998.998 0 0 0 .359-.77.989.989 0 0 0-.992-.992zm0 0" fill="#fff" fill-opacity=".235"/></svg>
